dist/assets/img/svg/tm-icon-05.svg

<svg width="29" height="32" viewBox="0 0 29 32" fill="none" xmlns="http://www.w3.org/2000/svg">
<g opacity="0.5">
<path d="M3.90412 17.418L6.78959 16.1003L3.94027 14.7061C3.04456 14.2679 2.45595 13.7409 2.08441 13.1592C1.71479 12.5804 1.5 11.8539 1.5 10.9164C1.5 9.75163 1.90163 8.77219 2.75997 7.90424C3.61797 7.03665 4.57886 6.63712 5.71533 6.63712C6.59285 6.63712 7.32459 6.88967 7.96956 7.39135L10.3905 9.27446V6.20736V5.77926C10.3905 4.59937 10.7859 3.61465 11.6142 2.75006C12.4308 1.89765 13.3651 1.5 14.5 1.5C15.6349 1.5 16.5692 1.89765 17.3858 2.75006C18.2141 3.61465 18.6095 4.59937 18.6095 5.77926V6.20736V9.14112L20.9878 7.42335C21.7414 6.87901 22.4965 6.63712 23.2847 6.63712C24.4211 6.63712 25.382 7.03665 26.24 7.90424C27.0984 8.77219 27.5 9.75163 27.5 10.9164C27.5 11.8539 27.2852 12.5804 26.9156 13.1592C26.544 13.7409 25.9554 14.2679 25.0597 14.7061L22.2104 16.1003L25.0959 17.418C25.9757 17.8197 26.551 18.3235 26.9156 18.8944C27.2807 19.4661 27.5 20.2077 27.5 21.1906C27.5 22.354 27.1 23.3065 26.2569 24.1325C25.4026 24.9693 24.4367 25.3629 23.2847 25.3629C22.3698 25.3629 21.6166 25.1237 20.9697 24.6708L18.6095 23.0186V25.8997V26.3278C18.6095 27.5066 18.2155 28.4642 17.4024 29.2864C16.5899 30.108 15.6507 30.5 14.5 30.5C13.3493 30.5 12.4101 30.108 11.5976 29.2864C10.7844 28.4642 10.3905 27.5066 10.3905 26.3278V25.8997V23.1355L8.07299 24.642C7.31729 25.1333 6.54101 25.3629 5.71533 25.3629C4.56335 25.3629 3.59736 24.9693 2.7431 24.1325C1.89995 23.3065 1.5 22.354 1.5 21.1906C1.5 20.2077 1.71926 19.4661 2.08441 18.8944C2.44903 18.3235 3.02433 17.8197 3.90412 17.418ZM14.5 8.77425C12.5303 8.77425 10.8186 9.51818 9.44788 10.9489C8.08883 12.3675 7.39051 14.0941 7.39051 16.0535C7.39051 18.014 8.09025 19.732 9.46448 21.1216C10.8393 22.5118 12.5461 23.2258 14.5 23.2258C16.4539 23.2258 18.1607 22.5118 19.5355 21.1216C20.9098 19.732 21.6095 18.014 21.6095 16.0535C21.6095 14.094 20.9112 12.3675 19.5521 10.9489C18.1814 9.51818 16.4697 8.77425 14.5 8.77425Z" stroke="white" stroke-width="3"/>
</g>
</svg>

<svg width="29" height="32" fill="none" xmlns="http://www.w3.org/2000/svg"><path d="M3.904 17.418L6.79 16.1l-2.85-1.394c-.895-.438-1.484-.965-1.856-1.547-.37-.579-.584-1.305-.584-2.243 0-1.164.402-2.144 1.26-3.012.858-.867 1.819-1.267 2.955-1.267.878 0 1.61.253 2.255.754l2.42 1.883V5.78c0-1.18.396-2.164 1.224-3.029.817-.852 1.751-1.25 2.886-1.25 1.135 0 2.07.398 2.886 1.25.828.865 1.224 1.85 1.224 3.03V9.14l2.378-1.718c.753-.544 1.509-.786 2.297-.786 1.136 0 2.097.4 2.955 1.267.858.868 1.26 1.848 1.26 3.012 0 .938-.215 1.664-.584 2.243-.372.582-.96 1.109-1.856 1.547L22.21 16.1l2.886 1.318c.88.402 1.455.905 1.82 1.476.365.572.584 1.314.584 2.297 0 1.163-.4 2.116-1.243 2.942-.854.836-1.82 1.23-2.972 1.23-.915 0-1.668-.24-2.315-.692l-2.36-1.652v3.309c0 1.179-.395 2.136-1.208 2.958-.812.822-1.751 1.214-2.902 1.214-1.15 0-2.09-.392-2.902-1.214-.814-.822-1.208-1.78-1.208-2.958v-3.192l-2.317 1.506c-.756.491-1.532.72-2.358.72-1.152 0-2.118-.393-2.972-1.23-.843-.826-1.243-1.777-1.243-2.94 0-.983.22-1.725.584-2.297.365-.57.94-1.074 1.82-1.476zM14.5 8.774c-1.97 0-3.681.744-5.052 2.175-1.36 1.418-2.057 3.145-2.057 5.104 0 1.961.7 3.679 2.073 5.069 1.375 1.39 3.082 2.104 5.036 2.104 1.954 0 3.66-.714 5.035-2.104 1.375-1.39 2.075-3.108 2.075-5.069 0-1.959-.699-3.686-2.058-5.104-1.37-1.43-3.082-2.175-5.052-2.175z" stroke="#fff" stroke-width="3" opacity=".5"/></svg>
